build/flags/FaroeIslands.svg

<svg xmlns="http://www.w3.org/2000/svg" fill="none" viewBox="0 0 28 28" focusable="false"><path fill="none" d="M0 0h28v28H0z"/><rect width="28" height="20" y="4" fill="#FFF" rx="3"/><rect width="27.5" height="19.5" x=".25" y="4.25" stroke="#D6D8DD" stroke-width=".5" rx="3"/><mask id="Faroe_Islands_svg__a" width="28" height="20" x="0" y="4" mask-type="alpha" maskUnits="userSpaceOnUse"><rect width="28" height="20" y="4" fill="#FFF" rx="3"/><rect width="27.5" height="19.5" x=".25" y="4.25" stroke="#F5F5F5" stroke-width=".5" rx="3"/></mask><g mask="url(#Faroe_Islands_svg__a)"><path fill="#235FB3" fill-rule="evenodd" d="M0 16h8v8h4v-8h16v-4H12V4H8v8H0z"/></g><g mask="url(#Faroe_Islands_svg__a)"><path fill="#DE4648" fill-rule="evenodd" d="M0 15h9v9h2v-9h17v-2H11V4H9v9H0z"/></g></svg>

<svg xmlns="http://www.w3.org/2000/svg" fill="none" viewBox="0 0 28 28" focusable="false"><defs><filter id="Faroe_Islands_svg__a"><feColorMatrix values="0 0 0 0 1 0 0 0 0 1 0 0 0 0 1 0 0 0 1 0"/></filter></defs><mask id="Faroe_Islands_svg__b" width="28" height="20" x="0" y="4" maskUnits="userSpaceOnUse"><g filter="url(#Faroe_Islands_svg__a)"><rect width="28" height="20" y="4" fill="#FFF" rx="3"/><rect width="27.5" height="19.5" x=".25" y="4.25" stroke="#F5F5F5" stroke-width=".5" rx="2.75"/></g></mask><path fill="none" d="M0 0H28V28H0z"/><rect width="28" height="20" y="4" fill="#FFF" rx="3"/><rect width="27.5" height="19.5" x=".25" y="4.25" stroke="#D6D8DD" stroke-width=".5" rx="2.75"/><g mask="url(#Faroe_Islands_svg__b)"><rect width="28" height="20" y="4" rx="2"/><path fill="#235FB3" fill-rule="evenodd" d="M0 16L8 16L8 24L12 24L12 16L28 16L28 12L12 12L12 4L8 4L8 12L0 12L0 16Z"/><path fill="#DE4648" fill-rule="evenodd" d="M0 15L9 15L9 24L11 24L11 15L28 15L28 13L11 13L11 4L9 4L9 13L0 13L0 15Z"/></g></svg>
